**kern	**kern	**dynam
*part1	*part1	*part1
*staff2	*staff1	*
*I"Piano	*	*
*clefF4	*clefG2	*
*k[b-e-]	*k[b-e-]	*
=1	=1	=1
4B- 4d	12r	.
.	12b-L 12dd	.
.	12e-J	.
4D) 4B-	12r	.
.	12b-L	.
.	12fJ	.
=	=	=
(4d 4f	12r	>
.	12ddL 12ff	.
.	12e-J	]
4F 4c	12r	.
.	12aL 12cc	.
.	12fJ	.
=	=	=
4B- 4d	12r	.
.	12b-L 12dd	.
.	12e-J	.
4D) 4B-	12r	.
.	12b-L	.
.	12fJ	.
=	=	=
4e- 4g	12r	.
!	!LO:TX:b:i:t=cresc.	!
.	12ee-L 12gg	.
.	12fJ	.
4F 4d	12r	.
.	12bnL 12dd	.
.	12gJ	.
=	=	=
4c 4e-	12r	<
.	12ccL 12ee-	.
.	12fJ	.
4G 4d-X 4e-	12r	.
.	12ee-L	.
.	12b-XJ	.
=	=	=
4A-X 4c 4e-	12r	[ f >
.	12ee-L	.
.	12b-J	.
4G 4d-X 4e-	12r	.
.	12ee-L	.
.	12b-J	.
=	=	=
4A-X 4c 4e-	12r	] p
.	12ee-L	.
.	12b-J	.
4G 4d-X 4e-	12r	.
.	12ee-L	.
.	12b-J	.
=	=	=
*-	*-	*-
!!!system-decoration: {(s1,s2)}
